build/img/sprite/icon-pin.svg

<svg width="18" height="19" viewBox="0 0 18 19" fill="none" xmlns="http://www.w3.org/2000/svg">
<path fill-rule="evenodd" clip-rule="evenodd" d="M14.9369 7.25101C14.9369 8.73251 14.7122 9.75649 13.9213 11.0788C13.1059 12.442 11.6946 14.1121 9.22132 16.7685C6.74499 14.1118 5.33216 12.4417 4.51609 11.0784C3.72465 9.75627 3.5 8.73249 3.5 7.25101C3.5 4.57884 5.98737 1.99939 9.21843 1.99939C12.4495 1.99939 14.9369 4.57884 14.9369 7.25101ZM16.4369 7.25101C16.4369 10.6732 15.3237 12.4445 9.95051 18.1856C9.55754 18.6054 8.88616 18.6056 8.49296 18.186C3.11319 12.4446 2 10.6733 2 7.25101C2 3.67938 5.2318 0.49939 9.21843 0.49939C13.2051 0.49939 16.4369 3.67938 16.4369 7.25101ZM10.4255 7.71786C10.4255 8.38442 9.88515 8.92477 9.21859 8.92477C8.55203 8.92477 8.01168 8.38442 8.01168 7.71786C8.01168 7.0513 8.55203 6.51095 9.21859 6.51095C9.88515 6.51095 10.4255 7.0513 10.4255 7.71786ZM11.9255 7.71786C11.9255 9.21284 10.7136 10.4248 9.21859 10.4248C7.7236 10.4248 6.51168 9.21284 6.51168 7.71786C6.51168 6.22287 7.7236 5.01095 9.21859 5.01095C10.7136 5.01095 11.9255 6.22287 11.9255 7.71786Z" fill="#0E4CD3"/>
</svg>

<svg width="18" height="19" fill="none" xmlns="http://www.w3.org/2000/svg"><path fill-rule="evenodd" clip-rule="evenodd" d="M14.937 7.251c0 1.482-.225 2.505-1.016 3.828-.815 1.363-2.226 3.033-4.7 5.69-2.476-2.657-3.889-4.327-4.705-5.69C3.725 9.755 3.5 8.731 3.5 7.25c0-2.672 2.487-5.252 5.718-5.252 3.232 0 5.719 2.58 5.719 5.252zm1.5 0c0 3.422-1.113 5.193-6.486 10.935-.393.42-1.065.42-1.458 0C3.113 12.445 2 10.673 2 7.251 2 3.679 5.232.499 9.218.499c3.987 0 7.219 3.18 7.219 6.752zm-6.012.467a1.207 1.207 0 11-2.413 0 1.207 1.207 0 012.413 0zm1.5 0a2.707 2.707 0 11-5.413 0 2.707 2.707 0 015.413 0z" fill="#0E4CD3"/></svg>
